X: 253
T: Ben Havada Uçar İdim
C: (Anonim)
O: Turkey
F: http://compmusic.upf.edu/node/140
N: evchuzi--turku--aksak--ben_havada--
N: makam= evchuzi
N: form= turku
N: usul= aksak = 9/8
M: 9/8
L: 1/16
K: C _1/4B ^f  
Q: 1/4=166
%%MIDI tuningsystem comma53
e2dc B2c2 d4 gg=fe d2 | ed cBA2 e2e4e4d2  | \
w:  ARANAĞME  |   | 
d4 _1/4edc2 d4 d2=ed c2 | 
w:   | 
c3BB2 BAA4e4d2  | e2dc B2c2 d4 gg=fe d2 | \
w:   |  ARANAĞME  | 
ed cBA2 e2e4e4d2  | 
w:   | 
d4 _1/4edc2 d4 d2=ed c2 | c3BB2 BAA4g2 f2^e2  | \
w:   |   | 
f4 f2f2 f2f^e f2g2 a2 | 
w:  *  Ben  ha va *  *  da   | 
f2 g4 f2f2 fed4z2  | c'3b bag2 fed2 e2f2 g2 | \
w:  u çar_ *  i *  *  dim    |  Al  *  i *  *  le  *  *  tut  | 
f3ed2 d2d4g2 f2^e2  | 
w:  tun  *  *  be ni  *  *  a  | 
f4 f2f2 f2f^e f2g2 a2 | f2 g4 f2f2 fed4z2  | \
w:  man   Ben  ha va *  *  da   |  u çar_ *  i *  *  dim    | 
c'3b bag2 fed2 e2f2 g2 | 
w:  Al  *  i *  *  le  *  *  tut  | 
f3ed2 d2d4e4d2  | e4 d2e2 e4 gg=fe d2 | \
w:  tun  *  *  be ni  *  a  |  man   Ben  pa hâ mı   | 
d2 cBA2 e2e4e4d2  | 
w:  bi *  *  *  lir_ i dim    | 
d4 _1/4edc2 d4 d2ed c2 | c3BB2 BAA4e4d2  | \
w:  Bir  pu *  *  la  sat  |  tın  *  *  be *  ni  *  a  | 
e4 d2e2 e4 gg=fe d2 | 
w:  man   Ben  pa hâ mı   | 
d2 cBA2 e2e4e4d2  | d4 _1/4edc2 d4 d2ed c2 | \
w:  bi *  *  *  lir_ i dim    |  Bir  pu *  *  la  sat  | 
c3BB2 BAA8z2  | 
w:  tın  *  *  be *  ni    | 
e2dc B2c2 d4 gg=fe d2 | ed cBA2 e2e4e4d2  | \
w:  ARANAĞME  |   | 
d4 _1/4edc2 d4 d2=ed c2 | 
w:   | 
c3BB2 BAA4e4d2  | e2dc B2c2 d4 gg=fe d2 | \
w:   |  ARANAĞME  | 
ed cBA2 e2e4e4d2  | 
w:   | 
d4 _1/4edc2 d4 d2=ed c2 | c3BB2 BAA4g2 f2^e2  | \
w:   |   | 
f4 f2f2 f2f^e f2g2 a2 | 
w:  *  Ben  ha va *  *  da   | 
f2 g4 f2f2 fed4z2  | c'3b bag2 fed2 e2f2 g2 | \
w:  u çar_ *  i *  *  dim    |  Al  *  i *  *  le  *  *  tut  | 
f3ed2 d2d4g2 f2^e2  | 
w:  tun  *  *  be ni  *  *  a  | 
f4 f2f2 f2f^e f2g2 a2 | f2 g4 f2f2 fed4z2  | \
w:  man   Ben  ha va *  *  da   |  u çar_ *  i *  *  dim    | 
c'3b bag2 fed2 e2f2 g2 | 
w:  Al  *  i *  *  le  *  *  tut  | 
f3ed2 d2d4e4d2  | e4 d2e2 e4 gg=fe d2 | \
w:  tun  *  *  be ni  *  a  |  man   Ben  pa hâ mı   | 
d2 cBA2 e2e4e4d2  | 
w:  bi *  *  *  lir_ i dim    | 
d4 _1/4edc2 d4 d2ed c2 | c3BB2 BAA4e4d2  | \
w:  Bir  pu *  *  la  sat  |  tın  *  *  be *  ni  *  a  | 
e4 d2e2 e4 gg=fe d2 | 
w:  man   Ben  pa hâ mı   | 
d2 cBA2 e2e4e4d2  | d4 _1/4edc2 d4 d2ed c2 | \
w:  bi *  *  *  lir_ i dim    |  Bir  pu *  *  la  sat  | 
c3BB2 BAA8z2  | 
w:  tın  *  *  be *  ni    | 
|


